X:1
T:[ID 1-111]
T:[ID 1-111]
T:Bezeichnung standardisiert: Boure 2. Boure
T:Urheber unbekannt Datum in der hier transkribierten schriftlichen Quelle: vermutlich vor 1767
C:Urheber unbekannt
C:Datum in der hier transkribierten schriftlichen Quelle: vermutlich vor 1767
L:1/8
M:2/4
K:D
V:1 treble 
V:1
 g | aggf | f3 a | gfed | e3 g | fedc | d3 g | fedc | d3 :: Ac | eeee | e2 df | aaaa | a3 a | %14
 aggf | f3 a | gfed | e3 g | fedc | d3 f | fedc | d3 :| %22

